X: 26727
T: Mike Sullivan's
R: hornpipe
M: 4/4
K: Dmajor
AB|:c2 cB cecA|d2 dc dfaf|c3B cfaf|ecAc BAFE|
c2 cB cecA|d2 (3ABc dfaf|ec (3ABc BAFE|A2 A^G A2:|
|:efge afed|edef ec A2|(3Bcd (3efg afed|e3d efed|
c2 cB cecA|d2 (3ABc dfaf|ec (3ABc BAFE|A2 A^G A4:|

